X: 70
T:Missa L'homme arm\'e sexti toni / Agnus Dei
N: Derived from Jos0602e-Missa_Lhomme_arme_sexti_toni-Agnus.krn
C: Josquin des Prez
%%abc-version 2.0
%%abcx-abcm2ps-target-version 5.9.1 (29 Sep 2008)
%%abc-creator hum2abc beta
%%abcx-conversion-date 2019/02/12 16:15:41
%%abc-edited-by Jesse Rodin
%%abc-edited-by Jesse Rodin; Victoria Chang 2011/09/04
%%abcx-initial-encoding-date 2011/09/04/
%%humdrum-veritas 3745359279
%%humdrum-veritas-data 3562369328
%%linebreak <none>
%%barnumbers 0
L: 1/4
M: 3/1
Q: 1/2=120
V: 1 clef=treble
V: 2 clef=treble
V: 3 clef=treble-8
V: 4 clef=treble-8
V: 5 clef=bass
V: 6 clef=bass
K: F
[V:1] z12 | 
[V:2] z12 | 
[V:3] F8F4 | 
[V:4] z12 | 
[V:5] z12 | 
[V:6] z12 | 
[V:1] F8F4 | 
[V:2] z12 | 
[V:3] F4B6A2 | 
[V:4] z12 | 
[V:5] z12 | 
[V:6] z12 | 
[V:1] F4B6A2 | 
[V:2] z12 | 
[V:3] A4G8 | 
[V:4] z12 | 
[V:5] z12 | 
[V:6] z12 | 
[V:1] A4c6B2 | 
[V:2] z12 | 
[V:3] F6E2C4 | 
[V:4] z12 | 
[V:5] F,8F,4 | 
[V:6] F,,12- | 
[V:1] A4G8 | 
[V:2] z12 | 
[V:3] D12 | 
[V:4] z12 | 
[V:5] F,4B,6A,2 | 
[V:6] F,,4G,,8 | 
[V:1] F8E4 | 
[V:2] z12 | 
[V:3] C4z4c4 | 
[V:4] z12 | 
[V:5] A,4G,8 | 
[V:6] A,,4B,,4C,4 | 
[V:1] F8z4 | 
[V:2] z12 | 
[V:3] A2B4AGF4 | 
[V:4] z12 | 
[V:5] F,8z4 | 
[V:6] D,8z4 | 
[V:1] E8E4 | 
[V:2] z12 | 
[V:3] G12 | 
[V:4] z12 | 
[V:5] C12- | 
[V:6] C,12- | 
[V:1] E4F8 | 
[V:2] z12 | 
[V:3] A8B4 | 
[V:4] z12 | 
[V:5] C4F,8 | 
[V:6] C,4D,8 | 
[V:1] E4D8 | 
[V:2] z12 | 
[V:3] c6=BA=B4 | 
[V:4] z12 | 
[V:5] z12 | 
[V:6] E,4F,4G,4 | 
[V:1] C4c6B2 | 
[V:2] z12 | 
[V:3] c8F4 | 
[V:4] z12 | 
[V:5] C12 | 
[V:6] A,12 | 
[V:1] A4z2G2E2F2 | 
[V:2] z12 | 
[V:3] c4A2B2c4 | 
[V:4] z12 | 
[V:5] F,4C8 | 
[V:6] z2A,2F,2G,2A,4 | 
[V:1] G4z2F2D2E2 | 
[V:2] z12 | 
[V:3] d4z2d4B2 | 
[V:4] z12 | 
[V:5] B,4C2A,2B,4 | 
[V:6] z2G,2E,2F,2G,4 | 
[V:1] F4z2E2C2D2 | 
[V:2] z12 | 
[V:3] c4z2c4A2 | 
[V:4] z12 | 
[V:5] A,4B,2G,2A,4 | 
[V:6] z2F,2D,2E,2F,4 | 
[V:1] E4z2D2B,2C2 | 
[V:2] z12 | 
[V:3] B4z2B4G2 | 
[V:4] z12 | 
[V:5] G,4A,2F,2G,4 | 
[V:6] z2E,2C,2D,2E,4 | 
[V:1] D4z2C2A,2B,2 | 
[V:2] z12 | 
[V:3] A4z2A4F2 | 
[V:4] z12 | 
[V:5] F,8z4 | 
[V:6] z2D,2B,,2C,2D,4 | 
[V:1] C4z4E4 | 
[V:2] z12 | 
[V:3] G2A4GFG4 | 
[V:4] z12 | 
[V:5] C4C4C4 | 
[V:6] C,12 | 
[V:1] F6EDF4 | 
[V:2] z12 | 
[V:3] z2d4c2A2B2 | 
[V:4] z12 | 
[V:5] F,12 | 
[V:6] D,12 | 
[V:1] E4C2D2E4 | 
[V:2] z12 | 
[V:3] c4z2B2G2A2 | 
[V:4] z12 | 
[V:5] z12 | 
[V:6] z2C,2A,,2B,,2C,4 | 
[V:1] D4B,2C2D4 | 
[V:2] z12 | 
[V:3] B4z2A2F2G2 | 
[V:4] z12 | 
[V:5] z12 | 
[V:6] z2B,,2G,,2A,,2B,,4 | 
[V:1] C12 | 
[V:2] z12 | 
[V:3] A4z2G2E2F2 | 
[V:4] z12 | 
[V:5] z2C2A,2B,2C4 | 
[V:6] z2A,,2F,,2G,,2A,,4 | 
[V:1] z4z4G4 | 
[V:2] z12 | 
[V:3] G4z2F2D2E2 | 
[V:4] z12 | 
[V:5] z2B,2G,2A,2B,4 | 
[V:6] z2G,,2_E,,2F,,2G,,4 | 
[V:1] A2c4B2A2GF | 
[V:2] z12 | 
[V:3] F3GA2B2c4- | 
[V:4] z12 | 
[V:5] z2A,2F,2G,2A,4 | 
[V:6] F,,12 | 
[V:1] EDG3FF4E2 | 
[V:2] z12 | 
[V:3] c2BAG2A2G2c2 | 
[V:4] z12 | 
[V:5] z2G,2E,2F,2G,4 | 
[V:6] C,12 | 
[V:1] F12- | 
[V:2] z12 | 
[V:3] A2B2c4d4 | 
[V:4] z12 | 
[V:5] F,12- | 
[V:6] F,,12- | 
[V:1] F12 ||  
[V:2] z12 ||  
[V:3] c12 ||  
[V:4] z12 ||  
[V:5] F,12 ||  
[V:6] F,,12 ||  
[V:1]  [K:F] [K:clef=treble][M:2/1]C6B,A, | 
[V:2]  [K:F] [K:clef=treble][M:2/1]z8 | 
[V:3]  [K:F] [K:clef=treble-8][M:2/1]z8 | 
[V:4]  [K:F] [K:clef=treble-8][M:2/1]z8 | 
[V:5]  [K:F] [K:clef=bass][M:2/1]z8 | 
[V:6]  [K:F] [K:clef=bass][M:2/1]F,8- | 
[V:1] D4C4 | 
[V:2] z8 | 
[V:3] z8 | 
[V:4] z8 | 
[V:5] z8 | 
[V:6] F,8 | 
[V:1] z2C4B,A, | 
[V:2] z8 | 
[V:3] z8 | 
[V:4] z8 | 
[V:5] z8 | 
[V:6] E,4F,4- | 
[V:1] D4C4 | 
[V:2] z8 | 
[V:3] z8 | 
[V:4] z8 | 
[V:5] z8 | 
[V:6] F,8 | 
[V:1] z2C3A,D2- | 
[V:2] z8 | 
[V:3] z8 | 
[V:4] z8 | 
[V:5] z8 | 
[V:6] E,4F,4- | 
[V:1] DCB,A,G,4 | 
[V:2] z8 | 
[V:3] z8 | 
[V:4] z8 | 
[V:5] z8 | 
[V:6] F,4E,4 | 
[V:1] F,8 | 
[V:2] z8 | 
[V:3] c8- | 
[V:4] z8 | 
[V:5] z8 | 
[V:6] F,8- | 
[V:1] z4C4 | 
[V:2] z8 | 
[V:3] c8 | 
[V:4] z8 | 
[V:5] z8 | 
[V:6] F,8 | 
[V:1] D4E3F | 
[V:2] z8 | 
[V:3] B4c4- | 
[V:4] z8 | 
[V:5] z8 | 
[V:6] z8 | 
[V:1] G2A4G2- | 
[V:2] z8 | 
[V:3] c8 | 
[V:4] z8 | 
[V:5] z8 | 
[V:6] z8 | 
[V:1] G2B2A2G2- | 
[V:2] z8 | 
[V:3] B4c4- | 
[V:4] z8 | 
[V:5] z8 | 
[V:6] z8 | 
[V:1] G2FED2G2- | 
[V:2] z8 | 
[V:3] c4B4 | 
[V:4] z8 | 
[V:5] z8 | 
[V:6] z4G,3F, | 
[V:1] GFA4GF | 
[V:2] z8 | 
[V:3] c8 | 
[V:4] z8 | 
[V:5] z8 | 
[V:6] E,D,F,4E,D, | 
[V:1] E8 | 
[V:2] z8 | 
[V:3] z4c3B | 
[V:4] z8 | 
[V:5] z8 | 
[V:6] C,4C,4 | 
[V:1] z8 | 
[V:2] z8 | 
[V:3] AGB4AG | 
[V:4] z8 | 
[V:5] z8 | 
[V:6] D,4G,,4 | 
[V:1] z8 | 
[V:2] z8 | 
[V:3] F4F4 | 
[V:4] z8 | 
[V:5] z8 | 
[V:6] D,3C,A,,2B,,2- | 
[V:1] z8 | 
[V:2] z8 | 
[V:3] G4C4 | 
[V:4] z8 | 
[V:5] z8 | 
[V:6] B,,2C,4F,,2- | 
[V:1] z8 | 
[V:2] z8 | 
[V:3] D3EF3E | 
[V:4] z8 | 
[V:5] z8 | 
[V:6] F,,2B,,3A,,B,,C, | 
[V:1] z8 | 
[V:2] z8 | 
[V:3] FGA3GAB | 
[V:4] z8 | 
[V:5] z8 | 
[V:6] D,3C,D,E,F,2- | 
[V:1] A,3B,C2D2- | 
[V:2] z8 | 
[V:3] c4z4 | 
[V:4] z8 | 
[V:5] z8 | 
[V:6] F,E,F,G,A,2B,2- | 
[V:1] D2E2F2G2 | 
[V:2] z8 | 
[V:3] z8 | 
[V:4] z8 | 
[V:5] z8 | 
[V:6] B,2A,4G,2 | 
[V:1] C8 | 
[V:2] z8 | 
[V:3] z2c3BAG | 
[V:4] z8 | 
[V:5] z8 | 
[V:6] A,4z2A,,2 | 
[V:1] z4C4 | 
[V:2] z8 | 
[V:3] F2G2E4 | 
[V:4] z8 | 
[V:5] z8 | 
[V:6] B,,2G,,2A,,4 | 
[V:1] F8 | 
[V:2] z8 | 
[V:3] D2d3cA2 | 
[V:4] z8 | 
[V:5] z8 | 
[V:6] z8 | 
[V:1] G4A4- | 
[V:2] z8 | 
[V:3] B2c2F4 | 
[V:4] z8 | 
[V:5] z8 | 
[V:6] z4z2A,2- | 
[V:1] A2G2A2G2- | 
[V:2] z8 | 
[V:3] z8 | 
[V:4] z8 | 
[V:5] z8 | 
[V:6] A,G,E,2F,2G,2 | 
[V:1] GFEDE4 | 
[V:2] z8 | 
[V:3] z2c3BG2 | 
[V:4] z8 | 
[V:5] z8 | 
[V:6] C,4z4 | 
[V:1] F4G4- | 
[V:2] z8 | 
[V:3] A2B2_E4 | 
[V:4] z8 | 
[V:5] z8 | 
[V:6] z4z2_E,2- | 
[V:1] G4A4 | 
[V:2] z8 | 
[V:3] z8 | 
[V:4] z8 | 
[V:5] z8 | 
[V:6] E,D,B,,2C,2D,2 | 
[V:1] B6A2 | 
[V:2] z8 | 
[V:3] z2B3AF2 | 
[V:4] z8 | 
[V:5] z8 | 
[V:6] G,,4z4 | 
[V:1] B2A3GFE | 
[V:2] z8 | 
[V:3] G2A2D4 | 
[V:4] z8 | 
[V:5] z8 | 
[V:6] z4z2D,2- | 
[V:1] D2C2D2C2- | 
[V:2] z8 | 
[V:3] z8 | 
[V:4] z8 | 
[V:5] z8 | 
[V:6] D,C,A,,2B,,2C,2 | 
[V:1] CB,A,G,F,4 | 
[V:2] z8 | 
[V:3] F3GABA2- | 
[V:4] z8 | 
[V:5] z8 | 
[V:6] F,,4z4 | 
[V:1] z8 | 
[V:2] z8 | 
[V:3] A2GFG2F2 | 
[V:4] z8 | 
[V:5] z8 | 
[V:6] F,4E,2F,2- | 
[V:1] C3DEFE2- | 
[V:2] z8 | 
[V:3] A2B2c4 | 
[V:4] z8 | 
[V:5] z8 | 
[V:6] F,2E,D,C,4 | 
[V:1] E2DCD2C2 | 
[V:2] z8 | 
[V:3] z2c2B2c2- | 
[V:4] z8 | 
[V:5] z8 | 
[V:6] z8 | 
[V:1] E2F2G4 | 
[V:2] z8 | 
[V:3] c2BAG4- | 
[V:4] z8 | 
[V:5] z8 | 
[V:6] z4z2_E,2- | 
[V:1] z2G2F2G2- | 
[V:2] z8 | 
[V:3] G4z4 | 
[V:4] z8 | 
[V:5] z8 | 
[V:6] E,2D,C,D,2C,2 | 
[V:1] G2FED4 | 
[V:2] z8 | 
[V:3] z4z2B2 | 
[V:4] z8 | 
[V:5] z8 | 
[V:6] G,8 | 
[V:1] z8 | 
[V:2] z8 | 
[V:3] A2B4AG | 
[V:4] z8 | 
[V:5] z8 | 
[V:6] D,4_E,4 | 
[V:1] z2A2G2A2- | 
[V:2] z8 | 
[V:3] F4z4 | 
[V:4] z8 | 
[V:5] z8 | 
[V:6] D,4_E,2C,2 | 
[V:1] A2GFE4 | 
[V:2] z8 | 
[V:3] z4z2c2 | 
[V:4] z8 | 
[V:5] z8 | 
[V:6] D,4C,4 | 
[V:1] z4z2c2 | 
[V:2] z8 | 
[V:3] B2c4BA | 
[V:4] z8 | 
[V:5] z8 | 
[V:6] D,2C,2E,2F,2 | 
[V:1] B2c4BA | 
[V:2] z8 | 
[V:3] G2F4c2 | 
[V:4] z8 | 
[V:5] z8 | 
[V:6] G,2A,4F,2 | 
[V:1] G4z4 | 
[V:2] z8 | 
[V:3] B2c4BA | 
[V:4] z8 | 
[V:5] z8 | 
[V:6] G,2E,2F,4 | 
[V:1] z2A2G2A2- | 
[V:2] z8 | 
[V:3] G2F2G2F2 | 
[V:4] z8 | 
[V:5] z8 | 
[V:6] E,2F,2E,2F,2- | 
[V:1] AGF4E2 | 
[V:2] z8 | 
[V:3] A2B2c4 | 
[V:4] z8 | 
[V:5] z8 | 
[V:6] F,2D,2C,4 | 
[V:1] F8- | 
[V:2] z8 | 
[V:3] d8 | 
[V:4] z8 | 
[V:5] z8 | 
[V:6] B,,8 | 
[V:1] F8 ||  
[V:2] z8 ||  
[V:3] !fermata!c8 ||  
[V:4] z8 ||  
[V:5] z8 ||  
[V:6] F,8 ||  
[V:1]  [K:F] [K:clef=treble][M:2/1]z8 | 
[V:2]  [K:F] [K:clef=treble][M:2/1]z8 | 
[V:3]  [K:F] [K:clef=treble-8][M:2/1]c4A2c2- | 
[V:4]  [K:F] [K:clef=treble-8][M:2/1]z2c4A2 | 
[V:5]  [K:F] [K:clef=bass][M:3/0]F,8- :
[V:6]  [K:F] [K:clef=bass][M:3/0]F,,8- :
[V:1] z8 | 
[V:2] z8 | 
[V:3] cBAGF2c2 | 
[V:4] c3BAGF2 | 
[V:5] F,8 :
[V:6] F,,8- :
[V:1] z8 | 
[V:2] z8 | 
[V:3] A3Bc3B | 
[V:4] c2A3Bc2- | 
[V:5] F,8 | 
[V:6] F,,8 | 
[V:1] G4E2G2- | 
[V:2] z2G4E2 | 
[V:3] G8 | 
[V:4] cBG6- | 
[V:5] E,8- :
[V:6] C,8 :
[V:1] GFEDC2E2 | 
[V:2] G3FEDC2 | 
[V:3] z8 | 
[V:4] G2z2z4 | 
[V:5] E,8 :
[V:6] C,8- :
[V:1] C2E3DCB, | 
[V:2] E2C2E3D | 
[V:3] z8 | 
[V:4] z8 | 
[V:5] E,8 | 
[V:6] C,8 | 
[V:1] A,8- | 
[V:2] CB,A,6- | 
[V:3] c4A2c2- | 
[V:4] z2c4A2 | 
[V:5] F,8- :
[V:6] z8 :
[V:1] A,8- | 
[V:2] A,8- | 
[V:3] cBAGF2A2 | 
[V:4] c3BAGF2 | 
[V:5] F,4C,4- :
[V:6] F,,8- :
[V:1] A,8 | 
[V:2] A,8- | 
[V:3] F2A3GFE | 
[V:4] A2F2A3G | 
[V:5] C,8 | 
[V:6] F,,8 | 
[V:1] z8 | 
[V:2] A,2z2z4 | 
[V:3] DCF2z2F2- | 
[V:4] FEDCF2z2 | 
[V:5] z8 :
[V:6] F,,8- :
[V:1] z8 | 
[V:2] z8 | 
[V:3] FEDCB,2B2- | 
[V:4] F3EDCB,2 | 
[V:5] z8 :
[V:6] F,,4G,,4- :
[V:1] z8 | 
[V:2] z8 | 
[V:3] BAG3FED | 
[V:4] B3AG3F | 
[V:5] z8 | 
[V:6] G,,8 | 
[V:1] z8 | 
[V:2] z8 | 
[V:3] C2c3BA2- | 
[V:4] EDC2c3B | 
[V:5] z8 :
[V:6] A,,8- :
[V:1] z8 | 
[V:2] z8 | 
[V:3] AGFED2d2- | 
[V:4] A3GFED2 | 
[V:5] z8 :
[V:6] A,,4B,,4- :
[V:1] z8 | 
[V:2] z8 | 
[V:3] dcB3AGF | 
[V:4] d3cB3A | 
[V:5] z8 | 
[V:6] B,,8 | 
[V:1] C3DE2C2 | 
[V:2] z2C3DE2 | 
[V:3] E4z4 | 
[V:4] GFE4z2 | 
[V:5] z8 :
[V:6] C,8 :
[V:1] E3FG2E2 | 
[V:2] C2E3FG2 | 
[V:3] C3DE2C2 | 
[V:4] z2C3DE2 | 
[V:5] z8 :
[V:6] C,8- :
[V:1] GFEDE2z2 | 
[V:2] E2GFEDE2 | 
[V:3] c2A2cBAG | 
[V:4] C2c2A2cB | 
[V:5] z8 | 
[V:6] C,8 | 
[V:1] F3GA2F2 | 
[V:2] z2F3GA2 | 
[V:3] A4z4 | 
[V:4] AGA4z2 | 
[V:5] F,8- :
[V:6] z8 :
[V:1] A3Bc2A2 | 
[V:2] F2A3Bc2 | 
[V:3] F3GA2F2 | 
[V:4] z2F3GA2 | 
[V:5] F,8 :
[V:6] F,,8- :
[V:1] cBAGA2z2 | 
[V:2] A2cBAGA2 | 
[V:3] A3Bc3B | 
[V:4] F2A3Bc2- | 
[V:5] F,8 | 
[V:6] F,,8 | 
[V:1] G3FEDE2 | 
[V:2] z2G3FED | 
[V:3] G4z4 | 
[V:4] cBG4z2 | 
[V:5] E,8- :
[V:6] C,8- :
[V:1] C3B,A,G,A,2 | 
[V:2] E2C3B,A,G, | 
[V:3] z4F2c2- | 
[V:4] z4z2F2 | 
[V:5] E,4F,4- :
[V:6] C,4F,,4- :
[V:1] z8 | 
[V:2] A,2z2z4 | 
[V:3] cBAGA2z2 | 
[V:4] c3BAGA2 | 
[V:5] F,8 | 
[V:6] F,,8 | 
[V:1] G,2D3CB,A, | 
[V:2] z2G,2D3C | 
[V:3] z8 | 
[V:4] z8 | 
[V:5] D,8- :
[V:6] G,,8- :
[V:1] B,2z2z4 | 
[V:2] B,A,B,2z4 | 
[V:3] z4c3B | 
[V:4] z4z2c2- | 
[V:5] D,4C,4- :
[V:6] G,,4A,,4- :
[V:1] z8 | 
[V:2] z8 | 
[V:3] c2A3GFE | 
[V:4] cBc2A3G | 
[V:5] C,8 | 
[V:6] A,,8 | 
[V:1] D3EF2D2 | 
[V:2] z2D3EF2 | 
[V:3] D4d2B2 | 
[V:4] FED4d2 | 
[V:5] F,8- :
[V:6] B,,8- :
[V:1] F3GA2F2 | 
[V:2] D2F3GA2 | 
[V:3] d3cA4 | 
[V:4] B2d3cA2- | 
[V:5] F,8 :
[V:6] B,,4F,,4- :
[V:1] C2F3EDC | 
[V:2] F2C2F3E | 
[V:3] z8 | 
[V:4] A2z2z4 | 
[V:5] F,8 | 
[V:6] F,,8 | 
[V:1] B,2G,2B,3C | 
[V:2] DCB,2G,2B,2- | 
[V:3] z8 | 
[V:4] z8 | 
[V:5] G,8- :
[V:6] z8 :
[V:1] D2B,2D3C | 
[V:2] B,CD2B,2D2- | 
[V:3] z8 | 
[V:4] z8 | 
[V:5] G,8 :
[V:6] z8 :
[V:1] A,4z4 | 
[V:2] DCA,4z2 | 
[V:3] FGABc3B | 
[V:4] z2FGABc2- | 
[V:5] F,8 | 
[V:6] z8 | 
[V:1] z8 | 
[V:2] z8 | 
[V:3] G3AB3A | 
[V:4] cBG3AB2- | 
[V:5] E,8 :
[V:6] z8 :
[V:1] D3EF2D2 | 
[V:2] z2D3EF2 | 
[V:3] F4z4 | 
[V:4] BAF4z2 | 
[V:5] D,8- :
[V:6] z8 :
[V:1] F3GA3G | 
[V:2] D2F3GA2- | 
[V:3] z8 | 
[V:4] z8 | 
[V:5] D,8 | 
[V:6] z8 | 
[V:1] E8 | 
[V:2] AGE6- | 
[V:3] c4G2c2- | 
[V:4] z2c4G2 | 
[V:5] C,8 :
[V:6] z8 :
[V:1] z8 | 
[V:2] E2z2z4 | 
[V:3] cBAGc3B | 
[V:4] c3BAGc2- | 
[V:5] z8 :
[V:6] z8 :
[V:1] z8 | 
[V:2] z8 | 
[V:3] G2c3BAG | 
[V:4] cBG2c3B | 
[V:5] z8 | 
[V:6] C,8 | 
[V:1] z2F3EDC | 
[V:2] z4F3E | 
[V:3] F8 | 
[V:4] AGF6- | 
[V:5] z8 :
[V:6] D,8- :
[V:1] B,A,D3CB,A, | 
[V:2] DCB,A,D3C | 
[V:3] z8 | 
[V:4] F2z2z4 | 
[V:5] z8 :
[V:6] D,8 :
[V:1] G,2GFEDC2- | 
[V:2] B,A,G,2GFED | 
[V:3] z8 | 
[V:4] z8 | 
[V:5] z8 | 
[V:6] E,8 | 
[V:1] C2F3EDC | 
[V:2] C4F3E | 
[V:3] z8 | 
[V:4] z8 | 
[V:5] z8 :
[V:6] F,8 :
[V:1] B,4z4 | 
[V:2] DCB,4z2 | 
[V:3] G2d2B2G2 | 
[V:4] z2G2d2B2 | 
[V:5] z8 :
[V:6] G,8- :
[V:1] z8 | 
[V:2] z8 | 
[V:3] d2B2d3c | 
[V:4] G2d2B2d2- | 
[V:5] z8 | 
[V:6] G,8 | 
[V:1] z8 | 
[V:2] z8 | 
[V:3] A2c3BAG | 
[V:4] dcA2c3B | 
[V:5] F,,8- :
[V:6] F,8 :
[V:1] z8 | 
[V:2] z8 | 
[V:3] A2F3EDC | 
[V:4] AGA2F3E | 
[V:5] F,,4B,,4- :
[V:6] F,8- :
[V:1] z8 | 
[V:2] z8 | 
[V:3] D4z4 | 
[V:4] DCD4z2 | 
[V:5] B,,8 | 
[V:6] F,8 | 
[V:1] z8 | 
[V:2] z8 | 
[V:3] z8 | 
[V:4] z8 | 
[V:5] A,,8- :
[V:6] C,8- :
[V:1] z8 | 
[V:2] z8 | 
[V:3] z8 | 
[V:4] z8 | 
[V:5] A,,4G,,4- :
[V:6] C,4D,4- :
[V:1] z8 | 
[V:2] z8 | 
[V:3] z8 | 
[V:4] z8 | 
[V:5] G,,8 | 
[V:6] D,8 | 
[V:1] A,B,CDC2A,2 | 
[V:2] z2A,B,CDC2 | 
[V:3] z8 | 
[V:4] z8 | 
[V:5] F,,8- :
[V:6] F,8- :
[V:1] C3B,G,2G2- | 
[V:2] A,2C3B,G,2 | 
[V:3] z8 | 
[V:4] z8 | 
[V:5] F,,4C,4- :
[V:6] F,4E,4- :
[V:1] GFEDC4 | 
[V:2] G3FEDC2- | 
[V:3] z8 | 
[V:4] z8 | 
[V:5] C,8 | 
[V:6] E,8 | 
[V:1] z8 | 
[V:2] C2z2z4 | 
[V:3] ABcdc2A2 | 
[V:4] z2ABcdc2 | 
[V:5] F,,8- :
[V:6] F,8 :
[V:1] A,B,CDC2A,2 | 
[V:2] z2A,B,CDC2 | 
[V:3] z8 | 
[V:4] A2z2z4 | 
[V:5] F,,8 :
[V:6] F,8- :
[V:1] z8 | 
[V:2] A,2z2z4 | 
[V:3] FGABc3B | 
[V:4] z2FGABc2- | 
[V:5] z8 | 
[V:6] F,8 | 
[V:1] EFGAG2E2 | 
[V:2] z2EFGAG2 | 
[V:3] G4z4 | 
[V:4] cBG4z2 | 
[V:5] C,8- :
[V:6] z8 :
[V:1] z8 | 
[V:2] E2z2z4 | 
[V:3] EFGAG2E2 | 
[V:4] z2EFGAG2 | 
[V:5] C,8 :
[V:6] z8 :
[V:1] CDEFG3F | 
[V:2] z2CDEFG2- | 
[V:3] c3BG3A | 
[V:4] E2c3BG2- | 
[V:5] C,8 | 
[V:6] z8 | 
[V:1] D3EF2D2 | 
[V:2] GFD3EF2 | 
[V:3] B3AF2z2 | 
[V:4] GAB3AF2 | 
[V:5] B,,8- :
[V:6] z8 :
[V:1] F3EC4 | 
[V:2] D2F3EC2- | 
[V:3] F3GA3G | 
[V:4] z2F3GA2- | 
[V:5] B,,4A,,4- :
[V:6] z8 :
[V:1] z8 | 
[V:2] C2z2z4 | 
[V:3] E2z2E3F | 
[V:4] AGE2z2E2- | 
[V:5] A,,8 | 
[V:6] z8 | 
[V:1] B,3CD2B,2 | 
[V:2] z2B,3CD2 | 
[V:3] G3FD2z2 | 
[V:4] EFG3FD2 | 
[V:5] G,,8- :
[V:6] z8 :
[V:1] D3CA,3B, | 
[V:2] B,2D3CA,2- | 
[V:3] D3EF3E | 
[V:4] z2D3EF2- | 
[V:5] G,,4F,,4- :
[V:6] z8 :
[V:1] C2A,2C2F,2 | 
[V:2] A,B,C2A,2C2 | 
[V:3] C2F3GAB | 
[V:4] FEC2F3G | 
[V:5] F,,8 | 
[V:6] z8 | 
[V:1] z2A,4F,2 | 
[V:2] F,2z2A,4 | 
[V:3] c2F2z2A2- | 
[V:4] ABc2F2z2 | 
[V:5] F,,8- :
[V:6] C,8- :
[V:1] C3B,A,G,F,2 | 
[V:2] F,2C3B,A,G, | 
[V:3] A2F2c3B | 
[V:4] A4F2c2- | 
[V:5] F,,8 :
[V:6] C,4F,4- :
[V:1] z2C2A,2C2 | 
[V:2] F,2z2C2A,2 | 
[V:3] AGF2z2C2- | 
[V:4] cBAGF2z2 | 
[V:5] z8 | 
[V:6] F,8 | 
[V:1] G,2C3DEF | 
[V:2] C2G,2C3D | 
[V:3] CDEFG2C2 | 
[V:4] C3DEFG2 | 
[V:5] C,8- :
[V:6] E,8 :
[V:1] G2C2z2G2- | 
[V:2] EFG2C2z2 | 
[V:3] z2G2E2G2 | 
[V:4] C2z2G2E2 | 
[V:5] C,8 :
[V:6] E,8- :
[V:1] GFEDE2C2 | 
[V:2] G3FEDE2 | 
[V:3] C2z2c3B | 
[V:4] G2C2z2c2- | 
[V:5] C,8 | 
[V:6] E,8 | 
[V:1] z2C3B,A,G, | 
[V:2] C2z2C3B, | 
[V:3] AGA2F2c2 | 
[V:4] cBAGA2F2 | 
[V:5] F,,8- :
[V:6] F,8 :
[V:1] A,2F,2A,3B, | 
[V:2] A,G,A,2F,2A,2- | 
[V:3] z2c3BAG | 
[V:4] c2z2c3B | 
[V:5] F,,8- :
[V:6] F,8- :
[V:1] C8 |]  
[V:2] A,B,C6 |]  
[V:3] A8 |]  
[V:4] AGA6 |]  
[V:5] F,,8 |]  
[V:6] F,8 |]  



